svg/emoji_u1f99b.svg

<?xml version="1.0" encoding="utf-8"?>
<!-- Generator: Adobe Illustrator 25.2.3, SVG Export Plug-In . SVG Version: 6.00 Build 0)  -->
<svg version="1.1" id="Layer_1" xmlns="http://www.w3.org/2000/svg" xmlns:xlink="http://www.w3.org/1999/xlink" x="0px" y="0px"
	 viewBox="0 0 128 128" style="enable-background:new 0 0 128 128;" xml:space="preserve">
<linearGradient id="SVGID_1_" gradientUnits="userSpaceOnUse" x1="65.3786" y1="-2267.1399" x2="65.3786" y2="-2296.8545" gradientTransform="matrix(1 0 0 -1 0 -2176)">
	<stop  offset="0.33" style="stop-color:#97715C"/>
	<stop  offset="0.48" style="stop-color:#A47D66"/>
	<stop  offset="0.72" style="stop-color:#B48C72"/>
	<stop  offset="0.9" style="stop-color:#BA9176"/>
</linearGradient>
<path style="fill:url(#SVGID_1_);" d="M75.4,91.2l-15.5,1.7c0,0,0.2,13.9,0,16.3c-0.4,4.2-6.5,7.3-3.9,10.1c1.9,2.2,11,2.1,14-0.2
	c2.92-2.1,4.72-5.41,4.9-9C74.8,104.6,75.4,90.5,75.4,91.2z"/>
<linearGradient id="SVGID_2_" gradientUnits="userSpaceOnUse" x1="98.8989" y1="-2256.6499" x2="100.0789" y2="-2283.22" gradientTransform="matrix(1 0 0 -1 0 -2176)">
	<stop  offset="0.17" style="stop-color:#97715C"/>
	<stop  offset="0.26" style="stop-color:#A07962"/>
	<stop  offset="0.54" style="stop-color:#B38B71"/>
	<stop  offset="0.73" style="stop-color:#BA9176"/>
</linearGradient>
<path style="fill:url(#SVGID_2_);" d="M99.1,88.5c0,0,0.3,8.7-0.6,10.8c-1.8,4.2-12,6.1-14.9,2.2c-2.2-2.8,1.3-3.9,1.7-6.1
	s0.4-10,0.4-10l30-5.6c0,0,0.8,14.8,0.6,17.5s-1.1,8.3-7.2,9.3s-8.6-0.7-8.7-1.7c-0.3-2,2.5-3.4,2.7-5.1S103,86.4,103,86.4
	L99.1,88.5z"/>
<linearGradient id="SVGID_3_" gradientUnits="userSpaceOnUse" x1="46.4123" y1="-2267.7979" x2="47.5722" y2="-2293.6753" gradientTransform="matrix(1 0 0 -1 0 -2176)">
	<stop  offset="0.17" style="stop-color:#97715C"/>
	<stop  offset="0.26" style="stop-color:#A07962"/>
	<stop  offset="0.54" style="stop-color:#B38B71"/>
	<stop  offset="0.73" style="stop-color:#BA9176"/>
</linearGradient>
<path style="fill:url(#SVGID_3_);" d="M41.9,92c0,0,1.5,11.4,0.1,14.6s-4.3,7.6-3,9.2c2.4,2.8,9,2.4,12.4,0.3s3.2-3.8,3.5-5.6
	s-0.1-8.3-0.1-10.8s0.4-7.5,0.4-7.5L41.9,92z"/>
<path style="fill:#835A4A;" d="M60.4,115.8c-1.8-2.1-6.4,1.7-4,3.7C58.3,121.2,61.8,117.5,60.4,115.8z"/>
<path style="fill:#835A4A;" d="M64.8,116.5c-2.5-0.6-5.4,3.8-2.2,4.2S66.9,117,64.8,116.5z"/>
<path style="fill:#835A4A;" d="M46.9,113.1c-2.3-0.6-5,3.6-2.2,4.6C47.7,118.8,49.8,113.8,46.9,113.1z"/>
<path style="fill:#835A4A;" d="M42,112.1c-2-0.7-5.2,2.8-2.5,4.4C41.9,118.1,44.8,113.1,42,112.1z"/>
<path style="fill:#835A4A;" d="M86.7,98.4c2.2,0.9,0.4,6.1-2.3,4.2C82.2,101.2,84.5,97.6,86.7,98.4z"/>
<path style="fill:#835A4A;" d="M91.7,99.3c2.1,0.4,0.7,5.1-2,4.7S89.1,98.8,91.7,99.3z"/>
<path style="fill:#835A4A;" d="M103.3,102.4c-1.4-1-4.2,2.5-2.5,3.7S105.1,103.6,103.3,102.4z"/>
<path style="fill:#835A4A;" d="M107,103.4c-2-0.3-4.6,3.2-2.2,3.8S109.4,103.8,107,103.4z"/>
<linearGradient id="SVGID_4_" gradientUnits="userSpaceOnUse" x1="81.3612" y1="-2216.1599" x2="80.6612" y2="-2271.9099" gradientTransform="matrix(1 0 0 -1 0 -2176)">
	<stop  offset="0.27" style="stop-color:#855A4A"/>
	<stop  offset="0.43" style="stop-color:#956C5A"/>
	<stop  offset="0.64" style="stop-color:#AD8671"/>
	<stop  offset="0.75" style="stop-color:#B18873"/>
	<stop  offset="0.85" style="stop-color:#BB8D7A"/>
	<stop  offset="0.95" style="stop-color:#CE9686"/>
	<stop  offset="1" style="stop-color:#DA9C8E"/>
</linearGradient>
<path style="fill:url(#SVGID_4_);" d="M57.2,49.9c0,0,19.6-15.9,37.3-11.5c19.8,5,21.5,24.2,24.2,24.2c2.2,0,2.1-2.9,3.5-2.4
	s1.3,6.5-1.3,7.9c-0.96,0.49-2.02,0.73-3.1,0.7c0.12,2.54-0.02,5.09-0.4,7.6c-0.6,2.3-1.6,5.8-1.6,5.8c-2.64-0.2-5.27,0.46-7.5,1.9
	c-4.7,3-5.8,7.8-18.8,11c-7.9,2-10.9,2.1-13.5,2c-2.8-0.1-4.7-2-8.5-1.7s-4.9,1.9-7.4,2c-2.86,0.09-5.7-0.35-8.4-1.3l-13-5
	l15.2-40.5L57.2,49.9z"/>
<radialGradient id="SVGID_5_" cx="1097.688" cy="1240.126" r="25.09" gradientTransform="matrix(-0.12 0.99 1.73 0.21 -1952.97 -1282.13)" gradientUnits="userSpaceOnUse">
	<stop  offset="0.51" style="stop-color:#AD8671;stop-opacity:0"/>
	<stop  offset="0.65" style="stop-color:#B48975;stop-opacity:0.28"/>
	<stop  offset="0.85" style="stop-color:#C79382;stop-opacity:0.7"/>
	<stop  offset="1" style="stop-color:#DA9C8E"/>
</radialGradient>
<path style="fill:url(#SVGID_5_);" d="M39.2,91c0,0,3.2,6.3,13,2.5s17.2-19.4,17.2-19.4l6.3-13.2l-25.8-4.1L39.2,91z"/>
<path style="fill:#B89379;" d="M54.8,57.8c1.6-1.77,2.89-3.8,3.8-6c1.4-3.7,1.6-8.9-1.2-10.2c-6.9-3.2-9,6.4-9.3,6.4
	s-3.2-2.1-5.6-2.4c-1.48-0.17-2.98-0.04-4.4,0.4c0,0,4.4-7.4-1.1-8.7c-5.3-1.2-6.1,8-6.1,8c-1.54,0.98-2.96,2.16-4.2,3.5
	c-1.5,1.8-2.2,3.8-3.4,4.2s-6,0.6-7.3,5.2s1.2,8.6,0.1,11.7c-1.3,3.8-3,3.6-5.3,4.6c-6.2,2.5-6.8,5-7.2,9.7
	C3.2,89.6,7,96.8,15.7,99.3s14.6-0.1,17.9-2.2c3-2,3.9-4.7,6-5.1c4.05-1,7.77-3.04,10.8-5.9c4.9-4.4,8.5-8.4,6.6-19
	C56.54,63.94,55.81,60.83,54.8,57.8z"/>
<radialGradient id="SVGID_6_" cx="-1499.1415" cy="1248.2665" r="38.98" gradientTransform="matrix(0.55 -0.83 0.58 0.39 134.15 -1668.34)" gradientUnits="userSpaceOnUse">
	<stop  offset="0" style="stop-color:#845A4A"/>
	<stop  offset="0.26" style="stop-color:#8B6352"/>
	<stop  offset="0.68" style="stop-color:#A07D68"/>
	<stop  offset="1" style="stop-color:#B2947C"/>
</radialGradient>
<path style="fill:url(#SVGID_6_);" d="M34.8,41.3c-1.1,3.7-5.3,6.2-7.3,10.3s-2.4,8.9-3.9,12.4c-1.9,4.6-6.6,7.3-9.4,8.9
	c-3.7,2.2-5.6,1.7-7.7,3.5c-3.3,2.8-2.7,5.7-2.7,5.7l29.5,3.7c0,0,2.3-1.8,2.1-3.2C34.8,78,29.2,71.2,31,65.8s6.4-8.8,11.6-10.4
	c4.5-1.4,7.7-2.3,7.7-2.3c0.41-2.31,1.25-4.52,2.5-6.5c1.26-1.85,2.66-3.58,4.2-5.2c-1.7-0.81-3.7-0.7-5.3,0.3
	c-1.6,1.1-3.3,4.9-3.8,6c-1.48-1.02-3.14-1.74-4.9-2.1c-1.66-0.27-3.36-0.2-5,0.2c0,0,4.7-7.7-1.4-8.8
	C35.85,38.37,35.25,39.81,34.8,41.3z"/>
<radialGradient id="SVGID_7_" cx="982.5405" cy="-960.4694" r="7.34" gradientTransform="matrix(0.91 0.41 0.58 -1.29 -285.63 -1563.8601)" gradientUnits="userSpaceOnUse">
	<stop  offset="0" style="stop-color:#DA9C8E"/>
	<stop  offset="0.3" style="stop-color:#D69A8B;stop-opacity:0.7"/>
	<stop  offset="0.6" style="stop-color:#CA9484;stop-opacity:0.4"/>
	<stop  offset="0.89" style="stop-color:#B78B77;stop-opacity:0.11"/>
	<stop  offset="1" style="stop-color:#AD8671;stop-opacity:0"/>
</radialGradient>
<path style="fill:url(#SVGID_7_);" d="M53.9,63.8c-3.8-1.4-8.9,3.5-10.6,8.9s-1.5,11.1,3.2,12c3.9,0.7,7.9-3,9.9-7.4
	S58.6,65.5,53.9,63.8z"/>
<path style="fill:#0B0B0B;" d="M41.5,78.8c0,0,4,1,4-0.7s-2.4-2.2-2.9-2.1S39.9,76.3,41.5,78.8z"/>
<path style="fill:#6B4433;" d="M36.4,89.8c1.22-1.81,2.23-3.76,3-5.8c0.7-2.8-0.3-5.6,0.6-7.2c0.86-1.22,2.52-1.57,3.8-0.8
	c0.8,0.4-1.9,0.3-1.8,2.2s0.6,3.9-0.3,7.1c-0.96,3.15-2.8,5.96-5.3,8.1C35.2,94.3,36.4,89.8,36.4,89.8z"/>
<path style="fill:#845A4A;" d="M19,79.3c3.76-0.81,7.64-0.81,11.4,0c6,1.4,7.9,5.2,7.4,10.8c-0.3,3.4-4.9,7.9-12.2,7.4
	s-10.2-5.1-10.2-5.1s-4.1,3.2-9.4-0.2c-2.5-1.6-3.3-5.8-2.7-9.3c0.4-2.7,1.4-3.9,2.3-4.6c2.34-2.02,5.55-2.7,8.5-1.8
	C15.94,77.01,17.63,77.97,19,79.3z"/>
<path style="fill:#0B0C0C;" d="M22.8,85c-1,1.1-2,2.4-1,3.4s2.6-0.3,3.7-1.5s1.6-2.2,0.7-3.1S24.1,83.5,22.8,85z"/>
<path style="fill:#0B0C0C;" d="M13.2,82.6c-1.3-1.9-2.2-2.4-3.3-1.5s0.1,2.6,0.8,3.6s2.1,2.4,3.1,1.6C15.3,85,14.1,83.9,13.2,82.6z"
	/>
<path style="fill:#0B0C0C;" d="M44.2,66.5c0.1,2.8-1.6,4-3.5,4c-2.04-0.15-3.58-1.93-3.43-3.97c0.13-1.83,1.59-3.29,3.43-3.43
	C42.6,63.08,44.17,64.6,44.2,66.5z"/>
<path style="fill:#0B0C0C;" d="M21.7,61.1c0,2.6-1.1,3.7-2.5,3.7s-2.4-1.5-2.4-3.4s1.1-3.4,2.4-3.4S21.6,59.2,21.7,61.1z"/>
</svg>

<?xml version="1.0" encoding="UTF-8" standalone="no"?>
<!DOCTYPE svg PUBLIC "-//W3C//DTD SVG 1.1//EN" "http://www.w3.org/Graphics/SVG/1.1/DTD/svg11.dtd">
<svg width="100%" height="100%" viewBox="0 0 128 128" version="1.1" xmlns="http://www.w3.org/2000/svg" xmlns:xlink="http://www.w3.org/1999/xlink" xml:space="preserve" xmlns:serif="http://www.serif.com/" style="fill-rule:evenodd;clip-rule:evenodd;stroke-linejoin:round;stroke-miterlimit:2;">
    <path id="path31973" d="M75.4,91.2L59.9,92.9C59.9,92.9 60.1,106.8 59.9,109.2C59.5,113.4 53.4,116.5 56,119.3C57.9,121.5 67,121.4 70,119.1C72.92,117 74.72,113.69 74.9,110.1C74.8,104.6 75.4,90.5 75.4,91.2Z" style="fill:rgb(161,134,127);fill-rule:nonzero;"/>
    <path id="path319731" serif:id="path31973" d="M75.4,91.2L59.9,92.9C59.9,92.9 60.1,106.8 59.9,109.2C59.5,113.4 53.4,116.5 56,119.3C57.9,121.5 67,121.4 70,119.1C72.92,117 74.72,113.69 74.9,110.1C74.8,104.6 75.4,90.5 75.4,91.2Z" style="fill:rgb(255,213,79);fill-opacity:0.2;fill-rule:nonzero;"/>
    <path id="path31984" d="M99.1,88.5C99.1,88.5 99.4,97.2 98.5,99.3C96.7,103.5 86.5,105.4 83.6,101.5C81.4,98.7 84.9,97.6 85.3,95.4C85.7,93.2 85.7,85.4 85.7,85.4L115.7,79.8C115.7,79.8 116.5,94.6 116.3,97.3C116.1,100 115.2,105.6 109.1,106.6C103,107.6 100.5,105.9 100.4,104.9C100.1,102.9 102.9,101.5 103.1,99.8C103.3,98.1 103,86.4 103,86.4L99.1,88.5Z" style="fill:rgb(161,134,127);fill-rule:nonzero;"/>
    <path id="path319841" serif:id="path31984" d="M99.1,88.5C99.1,88.5 99.4,97.2 98.5,99.3C96.7,103.5 86.5,105.4 83.6,101.5C81.4,98.7 84.9,97.6 85.3,95.4C85.7,93.2 85.7,85.4 85.7,85.4L115.7,79.8C115.7,79.8 116.5,94.6 116.3,97.3C116.1,100 115.2,105.6 109.1,106.6C103,107.6 100.5,105.9 100.4,104.9C100.1,102.9 102.9,101.5 103.1,99.8C103.3,98.1 103,86.4 103,86.4L99.1,88.5Z" style="fill:rgb(255,213,79);fill-opacity:0.2;fill-rule:nonzero;"/>
    <path id="path31995" d="M41.9,92C41.9,92 43.4,103.4 42,106.6C40.6,109.8 37.7,114.2 39,115.8C41.4,118.6 48,118.2 51.4,116.1C54.8,114 54.6,112.3 54.9,110.5C55.2,108.7 54.8,102.2 54.8,99.7C54.8,97.2 55.2,92.2 55.2,92.2L41.9,92Z" style="fill:rgb(161,134,127);fill-rule:nonzero;"/>
    <path id="path319951" serif:id="path31995" d="M41.9,92C41.9,92 43.4,103.4 42,106.6C40.6,109.8 37.7,114.2 39,115.8C41.4,118.6 48,118.2 51.4,116.1C54.8,114 54.6,112.3 54.9,110.5C55.2,108.7 54.8,102.2 54.8,99.7C54.8,97.2 55.2,92.2 55.2,92.2L41.9,92Z" style="fill:rgb(255,213,79);fill-opacity:0.2;fill-rule:nonzero;"/>
    <path id="path31997" d="M60.4,115.8C58.6,113.7 54,117.5 56.4,119.5C58.3,121.2 61.8,117.5 60.4,115.8Z" style="fill:rgb(131,90,74);fill-rule:nonzero;"/>
    <path id="path31999" d="M64.8,116.5C62.3,115.9 59.4,120.3 62.6,120.7C65.8,121.1 66.9,117 64.8,116.5Z" style="fill:rgb(131,90,74);fill-rule:nonzero;"/>
    <path id="path32001" d="M46.9,113.1C44.6,112.5 41.9,116.7 44.7,117.7C47.7,118.8 49.8,113.8 46.9,113.1Z" style="fill:rgb(131,90,74);fill-rule:nonzero;"/>
    <path id="path32003" d="M42,112.1C40,111.4 36.8,114.9 39.5,116.5C41.9,118.1 44.8,113.1 42,112.1Z" style="fill:rgb(131,90,74);fill-rule:nonzero;"/>
    <path id="path32005" d="M86.7,98.4C88.9,99.3 87.1,104.5 84.4,102.6C82.2,101.2 84.5,97.6 86.7,98.4Z" style="fill:rgb(131,90,74);fill-rule:nonzero;"/>
    <path id="path32007" d="M91.7,99.3C93.8,99.7 92.4,104.4 89.7,104C87,103.6 89.1,98.8 91.7,99.3Z" style="fill:rgb(131,90,74);fill-rule:nonzero;"/>
    <path id="path32009" d="M103.3,102.4C101.9,101.4 99.1,104.9 100.8,106.1C102.5,107.3 105.1,103.6 103.3,102.4Z" style="fill:rgb(131,90,74);fill-rule:nonzero;"/>
    <path id="path32011" d="M107,103.4C105,103.1 102.4,106.6 104.8,107.2C107.2,107.8 109.4,103.8 107,103.4Z" style="fill:rgb(131,90,74);fill-rule:nonzero;"/>
    <path id="path32028" d="M57.2,49.9C57.2,49.9 76.8,34 94.5,38.4C114.3,43.4 116,62.6 118.7,62.6C120.9,62.6 120.8,59.7 122.2,60.2C123.6,60.7 123.5,66.7 120.9,68.1C119.94,68.59 118.88,68.83 117.8,68.8C117.92,71.34 117.78,73.89 117.4,76.4C116.8,78.7 115.8,82.2 115.8,82.2C113.16,82 110.53,82.66 108.3,84.1C103.6,87.1 102.5,91.9 89.5,95.1C81.6,97.1 78.6,97.2 76,97.1C73.2,97 71.3,95.1 67.5,95.4C63.7,95.7 62.6,97.3 60.1,97.4C57.24,97.49 54.4,97.05 51.7,96.1L38.7,91.1L53.9,50.6L57.2,49.9Z" style="fill:rgb(133,92,82);fill-rule:nonzero;"/>
    <path id="path32041" d="M54.8,57.8C56.4,56.03 57.69,54 58.6,51.8C60,48.1 60.2,42.9 57.4,41.6C50.5,38.4 48.4,48 48.1,48C47.8,48 44.9,45.9 42.5,45.6C41.02,45.43 39.52,45.56 38.1,46C38.1,46 42.5,38.6 37,37.3C31.7,36.1 30.9,45.3 30.9,45.3C29.36,46.28 27.94,47.46 26.7,48.8C25.2,50.6 24.5,52.6 23.3,53C22.1,53.4 17.3,53.6 16,58.2C14.7,62.8 17.2,66.8 16.1,69.9C14.8,73.7 13.1,73.5 10.8,74.5C4.6,77 4,79.5 3.6,84.2C3.2,89.6 7,96.8 15.7,99.3C24.4,101.8 30.3,99.2 33.6,97.1C36.6,95.1 37.5,92.4 39.6,92C43.65,91 47.37,88.96 50.4,86.1C55.3,81.7 58.9,77.7 57,67.1C56.54,63.94 55.81,60.83 54.8,57.8Z" style="fill:rgb(161,134,127);fill-rule:nonzero;"/>
    <path id="path320411" serif:id="path32041" d="M54.8,57.8C56.4,56.03 57.69,54 58.6,51.8C60,48.1 60.2,42.9 57.4,41.6C50.5,38.4 48.4,48 48.1,48C47.8,48 44.9,45.9 42.5,45.6C41.02,45.43 39.52,45.56 38.1,46C38.1,46 42.5,38.6 37,37.3C31.7,36.1 30.9,45.3 30.9,45.3C29.36,46.28 27.94,47.46 26.7,48.8C25.2,50.6 24.5,52.6 23.3,53C22.1,53.4 17.3,53.6 16,58.2C14.7,62.8 17.2,66.8 16.1,69.9C14.8,73.7 13.1,73.5 10.8,74.5C4.6,77 4,79.5 3.6,84.2C3.2,89.6 7,96.8 15.7,99.3C24.4,101.8 30.3,99.2 33.6,97.1C36.6,95.1 37.5,92.4 39.6,92C43.65,91 47.37,88.96 50.4,86.1C55.3,81.7 58.9,77.7 57,67.1C56.54,63.94 55.81,60.83 54.8,57.8Z" style="fill:rgb(255,213,79);fill-opacity:0.2;fill-rule:nonzero;"/>
    <path id="path32052" d="M34.8,41.3C33.7,45 29.5,47.5 27.5,51.6C25.5,55.7 25.1,60.5 23.6,64C21.7,68.6 17,71.3 14.2,72.9C10.5,75.1 8.6,74.6 6.5,76.4C3.2,79.2 3.8,82.1 3.8,82.1L33.3,85.8C33.3,85.8 35.6,84 35.4,82.6C34.8,78 29.2,71.2 31,65.8C32.8,60.4 37.4,57 42.6,55.4C47.1,54 50.3,53.1 50.3,53.1C50.71,50.79 51.55,48.58 52.8,46.6C54.06,44.75 55.46,43.02 57,41.4C55.3,40.59 53.3,40.7 51.7,41.7C50.1,42.8 48.4,46.6 47.9,47.7C46.42,46.68 44.76,45.96 43,45.6C41.34,45.33 39.64,45.4 38,45.8C38,45.8 42.7,38.1 36.6,37C35.85,38.37 35.25,39.81 34.8,41.3Z" style="fill:rgb(141,107,99);fill-rule:nonzero;"/>
    <path id="path32067" d="M41.5,78.8C41.5,78.8 45.5,79.8 45.5,78.1C45.5,76.4 43.1,75.9 42.6,76C42.1,76.1 39.9,76.3 41.5,78.8Z" style="fill:rgb(33,33,33);fill-rule:nonzero;"/>
    <path id="path32069" d="M36.4,89.8C37.62,87.99 38.63,86.04 39.4,84C40.1,81.2 39.1,78.4 40,76.8C40.86,75.58 42.52,75.23 43.8,76C44.6,76.4 41.9,76.3 42,78.2C42.1,80.1 42.6,82.1 41.7,85.3C40.74,88.45 38.9,91.26 36.4,93.4C35.2,94.3 36.4,89.8 36.4,89.8Z" style="fill:rgb(93,64,55);fill-rule:nonzero;"/>
    <path id="path32071" d="M19,79.3C22.76,78.49 26.64,78.49 30.4,79.3C36.4,80.7 38.3,84.5 37.8,90.1C37.5,93.5 32.9,98 25.6,97.5C18.3,97 15.4,92.4 15.4,92.4C15.4,92.4 11.3,95.6 6,92.2C3.5,90.6 2.7,86.4 3.3,82.9C3.7,80.2 4.7,79 5.6,78.3C7.94,76.28 11.15,75.6 14.1,76.5C15.94,77.01 17.63,77.97 19,79.3Z" style="fill:rgb(133,92,82);fill-rule:nonzero;"/>
    <path id="path32073" d="M22.8,85C21.8,86.1 20.8,87.4 21.8,88.4C22.8,89.4 24.4,88.1 25.5,86.9C26.6,85.7 27.1,84.7 26.2,83.8C25.3,82.9 24.1,83.5 22.8,85Z" style="fill:rgb(33,33,33);fill-rule:nonzero;"/>
    <path id="path32075" d="M13.2,82.6C11.9,80.7 11,80.2 9.9,81.1C8.8,82 10,83.7 10.7,84.7C11.4,85.7 12.8,87.1 13.8,86.3C15.3,85 14.1,83.9 13.2,82.6Z" style="fill:rgb(33,33,33);fill-rule:nonzero;"/>
    <path id="path32077" d="M44.2,66.5C44.3,69.3 42.6,70.5 40.7,70.5C38.66,70.35 37.12,68.57 37.27,66.53C37.4,64.7 38.86,63.24 40.7,63.1C42.6,63.08 44.17,64.6 44.2,66.5Z" style="fill:rgb(33,33,33);fill-rule:nonzero;"/>
    <path id="path32079" d="M21.7,61.1C21.7,63.7 20.6,64.8 19.2,64.8C17.8,64.8 16.8,63.3 16.8,61.4C16.8,59.5 17.9,58 19.2,58C20.5,58 21.6,59.2 21.7,61.1Z" style="fill:rgb(33,33,33);fill-rule:nonzero;"/>
</svg>
